X:126
T:Rebecca
C:Adam Steffey ("Bound to Ride" Jim Mills)
M:4/4
L:1/8
Q:1/8=500
K:B
F2B2 d2|effg f2f=g|gbgf ecB2|dfff fgfd|c/=d/cBG FGB^d|
Bccf c2f2|dfzd fgf=d|c/=d/cBc BGEF|GBBG F2BF|
z4 B2FE|B2F2 B2d2|effg f2f=g|gbgf egfb|
gbfb egfe|dfed Bcdg|fdc2 f4|dfzd fgf=a|
gf=a2 gfgf|e=d^df edBd|z4 =AFED|B,4 B2A2|
Bczf c2f2|c/=d/cBc =G^GcB|GEFG BcB=d|B2F2 BBFB|
z2B2 A2B2|Bczf c2f2|dfff fgf=d|c/=d/cBc BGEF|
BdcB FGBc|e=f^f=a gfeg|effg f2f=g|gbgf egfb|
gbfb egfe|dfed Bcdf|gf=a^a =a^a=a^a|=a^a=a^a fb=ag|
=aafe fedf|e=d^df edBd|Bd=Ad B2AB|=AFED B,4|
